svgs/sharp-light/ferry.svg

<svg xmlns="http://www.w3.org/2000/svg" viewBox="0 0 576 512"><!--! Font Awesome Pro 6.6.0 by @fontawesome - https://fontawesome.com License - https://fontawesome.com/license (Commercial License) Copyright 2024 Fonticons, Inc. --><path d="M224 0L192 0l0 32-69.3 0L88 32l13.3 32 13.3 32L80 96 64 96l0 16 0 192 0 4.4 2.3 3.8 48 80 27.4-16.5L108.3 320l359.5 0-33.5 55.8 27.4 16.5 48-80 2.3-3.8 0-4.4 0-192 0-16-16 0-34.7 0 13.3-32L488 32l-34.7 0L384 32l0-32L352 0 224 0zM128 288l-32 0 0-160 32 0 320 0 32 0 0 160-32 0 0-112 0-16-16 0-288 0-16 0 0 16 0 112zm32 0l0-96 256 0 0 96-256 0zM426.7 96L149.3 96 136 64l56 0 32 0 0-32 128 0 0 32 32 0 56 0L426.7 96zM192 480c-20.9 0-41.7-9.9-58.2-21.2c-14.6-10-26-21.5-37.8-34.2c-11.9 12.8-23.1 24.2-37.8 34.2C41.7 470.1 20.9 480 0 480l0 32c30.3 0 57.5-14.1 76.2-26.8c7.9-5.4 14.6-10.8 19.8-15.3c5.1 4.5 11.9 9.9 19.8 15.3C134.4 497.9 161.7 512 192 512s57.5-14.1 76.2-26.8c7.9-5.4 14.6-10.8 19.8-15.3c5.1 4.5 11.9 9.9 19.8 15.3C326.4 497.9 353.7 512 384 512s57.5-14.1 76.2-26.8c7.9-5.4 14.6-10.8 19.8-15.3c5.1 4.5 11.9 9.9 19.8 15.3C518.5 497.9 545.7 512 576 512l0-32c-20.9 0-41.7-9.9-58.2-21.2c-14.7-10-25.9-21.5-37.8-34.2c-11.9 12.8-23.1 24.2-37.8 34.2C425.6 470.1 404.9 480 384 480s-41.7-9.9-58.2-21.2c-14.7-10-25.9-21.5-37.8-34.2c-11.9 12.8-23.1 24.2-37.8 34.2C233.6 470.1 212.9 480 192 480z"/></svg>

<svg xmlns="http://www.w3.org/2000/svg" viewBox="0 0 576 512"><!--! Font Awesome Pro 6.4.2 by @fontawesome - https://fontawesome.com License - https://fontawesome.com/license (Commercial License) Copyright 2023 Fonticons, Inc. --><path d="M224 0H192V32H122.7 88l13.3 32 13.3 32H80 64v16V304v4.4l2.3 3.8 48 80 27.4-16.5L108.3 320H467.7l-33.5 55.8 27.4 16.5 48-80 2.3-3.8V304 112 96H496 461.3l13.3-32L488 32H453.3 384V0H352 224zM128 288H96V128h32H448h32V288H448V176 160H432 144 128v16V288zm32 0V192H416v96H160zM426.7 96H149.3L136 64h56 32V32H352V64h32 56L426.7 96zM192 480c-20.9 0-41.7-9.9-58.2-21.2c-14.6-10-26-21.5-37.8-34.2c-11.9 12.8-23.1 24.2-37.8 34.2C41.7 470.1 20.9 480 0 480v32c30.3 0 57.5-14.1 76.2-26.8c7.9-5.4 14.6-10.8 19.8-15.3c5.1 4.5 11.9 9.9 19.8 15.3C134.4 497.9 161.7 512 192 512s57.5-14.1 76.2-26.8c7.9-5.4 14.6-10.8 19.8-15.3c5.1 4.5 11.9 9.9 19.8 15.3C326.4 497.9 353.7 512 384 512s57.5-14.1 76.2-26.8c7.9-5.4 14.6-10.8 19.8-15.3c5.1 4.5 11.9 9.9 19.8 15.3C518.5 497.9 545.7 512 576 512V480c-20.9 0-41.7-9.9-58.2-21.2c-14.7-10-25.9-21.5-37.8-34.2c-11.9 12.8-23.1 24.2-37.8 34.2C425.6 470.1 404.9 480 384 480s-41.7-9.9-58.2-21.2c-14.7-10-25.9-21.5-37.8-34.2c-11.9 12.8-23.1 24.2-37.8 34.2C233.6 470.1 212.9 480 192 480z"/></svg>
